src/favicon.svg

<svg xmlns="http://www.w3.org/2000/svg" viewBox="0 0 100 100">
  <rect width="100" height="100" fill="green" rx="0"/>
  <path fill="#fff" d="m12.05 48.82-.38-3.69q-.14-1.44.14-1.44.68 0 2.5 1.49.62.52.77.79.14.26.14.79 0 .72.07 1.82.08 1.11.17 1.23.1.12 1.56-.39 1.47-.5 3.1-.93 1.1-.29 1.46-.31.36-.03.89.16.67.29 1.25 1.16.33.62.41.93.07.31-.17 1.42-.24 1.53-.43 3.26-.1 1.44-.34 2.59-.24 1.16-.48 1.16-.1 0-.19.52-.43 1.83-2.31 3.75-1 1.15-1.51 1.34-.5.19-.84-.43-.33-.53-.79-1.03-.46-.51-.46-.65t-1.34-1.49l-.34-.29q-.76-.81-1-.79-.24.03-.82.84-.24.24-.29.39l-.86 1-.36.56q-.07.12-1.9 1.65l-2.54 2.26q-1.25 1.01-1.54.67 0-.1.41-.48t.41-.6q0-.22.48-.7.53-.48 1.41-1.84.89-1.37 1.32-2.33.44-1.06.63-1.3.09-.14.62-1.65l.87-2.52q.72-2.5.28-6.92Zm7.68 3.08q.05-.58.03-.72-.03-.15-.31-.1-.48 0-2.04.62-1.56.63-1.85.92-.15.14-.34 1.92-.19 1.77-.48 2.78-.29 1.01-.21 1.13.07.12 1.44.55 1.36.43 1.75.43.29 0 .72-.69.43-.7.24-.84-.1-.15.24-.87.33-.72.48-2.49.14-1.78.33-2.64Zm11.91-19.68q1.15-.48 2.49.04.48.24 1.68 1.35.77.77.94 1.01.17.24.07.72-.38 1.77-1.68 2.16-.81.24-1.13.19-.31-.05-.74-.34l-1.34-1.15q-.87-.72-1.18-1.34-.31-.63-.6-.96-.14-.2-.1-.36.05-.17.44-.51.57-.53 1.15-.81Zm-8.02-3.36q.58-.82 1.63.09.72.53.89.96.17.43.17 1.35.1 1.2.26 2.2.17 1.01.39 3.17.21 2.16.41 2.5.14.24.28.24.15 0 .68-.15.62-.24 1.48-.12.87.12 1.3.46.34.29.67 1.1.34.82.29 1.23-.05.41-.29.48t-1.53.12l-1.83.14-.05.91q-.04.92.39 2.48l.6 2.18q.17.62.31.89.14.26.29.93.19.96.55 1.8.36.84.5.8.44-.2 1.23-2.31t.74-3.07q0-.48.1-.62.09-.15.38-.15.53 0 1.06.34.62.43 1.63 1.41 1.01.99 1.01 1.28 0 1-2.55 3.79-.48.62-.48.86t-.45.82q-.46.57-.79 1.2-.2.38-.17.55.02.17.21.6.39.62.53.91.15.29.72 1.11 2.69 3.5 5.33 4.8 1.06.57 1.49.62.43.05 1.2-.29.57-.19.79-.81.22-.63.41-2.31.19-2.06.57-1.58.48.62.92 4.85.14 1.58.12 2.13-.03.55-.27 1.32-.38 1.2-.41 1.66-.02.45-.55 1.17-.33.44-.57.53-.24.1-.96.1-2.4 0-4.85-1.63-1.25-.82-3.82-3.44-2.57-2.61-2.85-3.33-.1-.24-.63-.96l-.57-.72-.92.67q-1.58 1.2-1.77 1.49-.19.33-1.3 1.05-1.1.72-1.82 1.35-1.15.81-1.06.24v-.15q.15-.28-.19-.36-.34-.07 1.49-1.94 1.58-1.63 2.73-3.22 1.16-1.58 1.16-2.11 0-.53-.65-2.11-.65-1.58-.65-1.92 0-.34-.29-.91-.57-1.25-1.15-4.13-.34-1.63-.62-2.74-.29-1.1-.41-2.23t-.22-1.32q-.09-.19-1.1-.09-1.01.09-1.25.28-.24.15-1.1.29-.87.15-1.73.72l-.82.58-1.15-.39q-1.25-.43-1.37-.67-.12-.24.46-.81 1.44-1.16 5.09-2.12l2.68-.72-.14-5.37q-.05-3.7-.02-4.63.02-.94.21-1.32ZM70.9 52.95q.67.19 2.14-.36 1.46-.55 3.07-.72 1.61-.17 4.25-.17 2.16 0 2.9.2.75.19 1.71.96.72.67.81.67.24 0 .36.79t-.02 1.27q-.19.67-.34 1.87-.29 1.78-.79 3.12-.5 1.35-1.08 1.64-.29.19.05.43.38.29.77 1.03.38.74.52 1.42.15.76-.48 1.65-.62.89-1.17 1.01-.55.12-1.85-.46-1.39-.52-2.93-.48-1.39.05-3.24.41-1.85.36-2.06.6-.22.24-.7.87-1.01 1.2-1.44.14-.19-.43-.81-1.51-.63-1.08-.51-1.37.12-.29-.29-2.06-.4-1.78-.62-3.29-.22-1.51-.5-2.43-.53-1.82-.34-2.85t1.2-1.95q.43-.52.67-.57.24-.05.72.14Zm8.98 3.65q0-.14-1.27-.22-1.28-.07-2.79.05-1.51.12-2.23.27l-1.1.38.04 1.87q.05 1.87.24 2.26.2.38.24 1.2l.05.81.96-.09q.87-.15 2.55-.34l1.72-.29.44-1.1q.28-.77.72-2.57.43-1.8.43-2.23ZM58.47 32.17q.19-.87.43-1.03.24-.17 1.85-.08 1.61.1 2.76.65 1.15.55 1.25.7.09.14.33 1.58.15.91.1 1.3-.05.38-.24 1.05-.48.96-.7.96-.21 0-.21.29t-.39.51q-.38.21-1.17-.44-.79-.64-1.27-1t-.87-1.13q-.38-.77-1.2-1.59-.57-.62-.67-.88-.1-.27 0-.89Zm20.93-1.39q.67-.2 1.85-.15 1.17.05 1.46.19.38.24.38 1.3 0 .77-.09 1.08-.1.31-.58.79-.57.58-.96.63-.38.04-1.15-.34-.82-.43-1.42-.31t-.72-.1q-.12-.21-.55-.21-.19 0-.26.12t-.03.55q.2.67.48 1.44.29.77.05 1.01-.38.52.48.67.43.05 1.2.09 1.68.2 3.17.96 1.44.68 1.68 1.06t-.19 1.3q-.48.91-.39 1.08.1.16-.28 1.96-.39 1.8-.32 1.85.08.05 3.51.07 3.43.03 4.82.22 1.39.19 1.8.26.41.08.75.7.48.91.16 1.82-.31.92-1.17 1.3-.53.19-1.73.17-1.2-.03-1.39-.22-.34-.24-6.43-.77-1.54-.09-4.06.15-2.52.24-5.06.43-3.36.19-5.43.65-2.06.45-2.06.89 0 .24-.19.28-.15.1-.63 1.06-.48.96-.62 1.49-.15.57-.7 2.01-.55 1.44-.74 2.16-1.3 5.24-1.97 6.15-.14.19-.34 1.1-.09.87-.79 1.95-.69 1.08-1.37 1.27-.62.24-1.15.14-.43-.14-1.32-1.01-.89-.86-1.03-1.34-.14-.53-.38-.77-.63-.81-.65-1.17-.03-.36.36-1.23 1.05-2.35 1.41-3.86.36-1.51.46-4.35.1-1.92.17-4.27.07-2.35.02-3.98t-.09-1.63q-.2 0-.92.5t-1.24 1.03q-.63.63-1.01.65-.39.02-1.11-.46-.57-.38-.79-1-.21-.63-.02-1.11.19-.29.24-.53 0-.62 2.23-2.04 2.23-1.41 3.96-1.89.82-.29 1.66-.07.84.21 1.17.79.29.33.29.55 0 .22-.24.84-.19.67-.48 4.42-.29 3.74-.38 6.76-.1 3.03.04 3.51.1 0 1.11-1.39 1.01-1.4 1.15-1.73.1-.24.86-1.2.72-.87.77-1.2.05-.34-.43-.43-.62-.2-.98-.65-.36-.46-.22-.94.1-.57.36-.57t.55-.34q.39-.38 4.27-1.25 2.07-.43 2.12-1.29 0-.2.62-.96.53-.68 1.27-2.24.75-1.56.75-2.04 0-.38-.17-.38t-1.08.34q-.72.24-.89.24-.17 0-.5-.29l-.44-.43.44-.53q.48-.58 1.72-1.11l1.25-.62.29-1.58q.19-1.64.38-2.16.05-.34 0-.46-.04-.12-.33-.12-.43 0-1.06.34-.62.33-1.39.09-1.1-.29-1.15-.91 0-.24.19-.34.34-.19.34-.52 0-.34.43-.63 1.01-.62 5.76-1.01l2.64-.28Zm-.24 9.31q-.1-.15-1.3-.15-1.82 0-1.82 1.01 0 .91-1.44 3.07-.58.87-.58 1.06 0 .19-.41.67-.4.48-.4.72 0 .05.88.1.89.05 1.95 0 1.05-.05 1.53-.15.44-.04.6-.4.17-.36.51-1.95.19-1.1.36-2.47.17-1.37.12-1.51Z"/>
</svg>

<svg xmlns="http://www.w3.org/2000/svg" width="256" height="256" viewBox="0 0 100 100"><rect width="100" height="100" rx="0" fill="#008000"></rect><path d="M12.05 48.82Q11.81 46.57 11.67 45.13Q11.53 43.69 11.81 43.69L11.81 43.69Q12.49 43.69 14.31 45.18L14.31 45.18Q14.93 45.70 15.08 45.97Q15.22 46.23 15.22 46.76L15.22 46.76Q15.22 47.48 15.29 48.58Q15.37 49.69 15.46 49.81Q15.56 49.93 17.02 49.42Q18.49 48.92 20.12 48.49L20.12 48.49Q21.22 48.20 21.58 48.18Q21.94 48.15 22.47 48.34L22.47 48.34Q23.14 48.63 23.72 49.50L23.72 49.50Q24.05 50.12 24.13 50.43Q24.20 50.74 23.96 51.85L23.96 51.85Q23.72 53.38 23.53 55.11L23.53 55.11Q23.43 56.55 23.19 57.70Q22.95 58.86 22.71 58.86L22.71 58.86Q22.61 58.86 22.52 59.38L22.52 59.38Q22.09 61.21 20.21 63.13L20.21 63.13Q19.21 64.28 18.70 64.47Q18.20 64.66 17.86 64.04L17.86 64.04Q17.53 63.51 17.07 63.01Q16.61 62.50 16.61 62.36Q16.61 62.22 15.27 60.87L15.27 60.87Q15.17 60.78 14.93 60.58L14.93 60.58Q14.17 59.77 13.93 59.79Q13.69 59.82 13.11 60.63L13.11 60.63Q12.87 60.87 12.82 61.02L12.82 61.02L11.96 62.02Q11.67 62.46 11.60 62.58Q11.53 62.70 9.70 64.23L9.70 64.23L7.16 66.49Q5.91 67.50 5.62 67.16L5.62 67.16Q5.62 67.06 6.03 66.68Q6.44 66.30 6.44 66.08Q6.44 65.86 6.92 65.38L6.92 65.38Q7.45 64.90 8.33 63.54Q9.22 62.17 9.65 61.21L9.65 61.21Q10.09 60.15 10.28 59.91L10.28 59.91Q10.37 59.77 10.90 58.26Q11.43 56.74 11.77 55.74L11.77 55.74Q12.49 53.24 12.05 48.82L12.05 48.82ZM19.73 51.90Q19.78 51.32 19.76 51.18Q19.73 51.03 19.45 51.08L19.45 51.08Q18.97 51.08 17.41 51.70Q15.85 52.33 15.56 52.62L15.56 52.62Q15.41 52.76 15.22 54.54Q15.03 56.31 14.74 57.32Q14.45 58.33 14.53 58.45Q14.60 58.57 15.97 59.00Q17.33 59.43 17.72 59.43L17.72 59.43Q18.01 59.43 18.44 58.74Q18.87 58.04 18.68 57.90L18.68 57.90Q18.58 57.75 18.92 57.03Q19.25 56.31 19.40 54.54Q19.54 52.76 19.73 51.90L19.73 51.90ZM31.64 32.22Q32.79 31.74 34.13 32.26L34.13 32.26Q34.61 32.50 35.81 33.61L35.81 33.61Q36.58 34.38 36.75 34.62Q36.92 34.86 36.82 35.34L36.82 35.34Q36.44 37.11 35.14 37.50L35.14 37.50Q34.33 37.74 34.01 37.69Q33.70 37.64 33.27 37.35L33.27 37.35L31.93 36.20Q31.06 35.48 30.75 34.86Q30.44 34.23 30.15 33.90L30.15 33.90Q30.01 33.70 30.05 33.54Q30.10 33.37 30.49 33.03L30.49 33.03Q31.06 32.50 31.64 32.22L31.64 32.22ZM23.62 28.86Q24.20 28.04 25.25 28.95L25.25 28.95Q25.97 29.48 26.14 29.91Q26.31 30.34 26.31 31.26L26.31 31.26Q26.41 32.46 26.57 33.46Q26.74 34.47 26.96 36.63Q27.17 38.79 27.37 39.13L27.37 39.13Q27.51 39.37 27.65 39.37Q27.80 39.37 28.33 39.22L28.33 39.22Q28.95 38.98 29.81 39.10Q30.68 39.22 31.11 39.56L31.11 39.56Q31.45 39.85 31.78 40.66Q32.12 41.48 32.07 41.89Q32.02 42.30 31.78 42.37Q31.54 42.44 30.25 42.49L30.25 42.49L28.42 42.63L28.37 43.54Q28.33 44.46 28.76 46.02Q29.19 47.58 29.36 48.20Q29.53 48.82 29.67 49.09Q29.81 49.35 29.96 50.02L29.96 50.02Q30.15 50.98 30.51 51.82Q30.87 52.66 31.01 52.62L31.01 52.62Q31.45 52.42 32.24 50.31Q33.03 48.20 32.98 47.24L32.98 47.24Q32.98 46.76 33.08 46.62Q33.17 46.47 33.46 46.47L33.46 46.47Q33.99 46.47 34.52 46.81L34.52 46.81Q35.14 47.24 36.15 48.22Q37.16 49.21 37.16 49.50L37.16 49.50Q37.16 50.50 34.61 53.29L34.61 53.29Q34.13 53.91 34.13 54.15Q34.13 54.39 33.68 54.97Q33.22 55.54 32.89 56.17L32.89 56.17Q32.69 56.55 32.72 56.72Q32.74 56.89 32.93 57.32L32.93 57.32Q33.32 57.94 33.46 58.23Q33.61 58.52 34.18 59.34L34.18 59.34Q36.87 62.84 39.51 64.14L39.51 64.14Q40.57 64.71 41.00 64.76Q41.43 64.81 42.20 64.47L42.20 64.47Q42.77 64.28 42.99 63.66Q43.21 63.03 43.40 61.35L43.40 61.35Q43.59 59.29 43.97 59.77L43.97 59.77Q44.45 60.39 44.89 64.62L44.89 64.62Q45.03 66.20 45.01 66.75Q44.98 67.30 44.74 68.07L44.74 68.07Q44.36 69.27 44.33 69.73Q44.31 70.18 43.78 70.90L43.78 70.90Q43.45 71.34 43.21 71.43Q42.97 71.53 42.25 71.53L42.25 71.53Q39.85 71.53 37.40 69.90L37.40 69.90Q36.15 69.08 33.58 66.46Q31.01 63.85 30.73 63.13L30.73 63.13Q30.63 62.89 30.10 62.17L30.10 62.17L29.53 61.45L28.61 62.12Q27.03 63.32 26.84 63.61L26.84 63.61Q26.65 63.94 25.54 64.66Q24.44 65.38 23.72 66.01L23.72 66.01Q22.57 66.82 22.66 66.25L22.66 66.25Q22.66 66.20 22.66 66.10L22.66 66.10Q22.81 65.82 22.47 65.74Q22.13 65.67 23.96 63.80L23.96 63.80Q25.54 62.17 26.69 60.58Q27.85 59.00 27.85 58.47L27.85 58.47Q27.85 57.94 27.20 56.36Q26.55 54.78 26.55 54.44Q26.55 54.10 26.26 53.53L26.26 53.53Q25.69 52.28 25.11 49.40L25.11 49.40Q24.77 47.77 24.49 46.66Q24.20 45.56 24.08 44.43Q23.96 43.30 23.86 43.11L23.86 43.11Q23.77 42.92 22.76 43.02Q21.75 43.11 21.51 43.30L21.51 43.30Q21.27 43.45 20.41 43.59Q19.54 43.74 18.68 44.31L18.68 44.31L17.86 44.89L16.71 44.50Q15.46 44.07 15.34 43.83Q15.22 43.59 15.80 43.02L15.80 43.02Q17.24 41.86 20.89 40.90L20.89 40.90L23.57 40.18L23.43 34.81Q23.38 31.11 23.41 30.18Q23.43 29.24 23.62 28.86L23.62 28.86ZM70.90 52.95Q71.57 53.14 73.04 52.59Q74.50 52.04 76.11 51.87Q77.72 51.70 80.36 51.70L80.36 51.70Q82.52 51.70 83.26 51.90Q84.01 52.09 84.97 52.86L84.97 52.86Q85.69 53.53 85.78 53.53L85.78 53.53Q86.02 53.53 86.14 54.32Q86.26 55.11 86.12 55.59L86.12 55.59Q85.93 56.26 85.78 57.46L85.78 57.46Q85.49 59.24 84.99 60.58Q84.49 61.93 83.91 62.22L83.91 62.22Q83.62 62.41 83.96 62.65L83.96 62.65Q84.34 62.94 84.73 63.68Q85.11 64.42 85.25 65.10L85.25 65.10Q85.40 65.86 84.77 66.75Q84.15 67.64 83.60 67.76Q83.05 67.88 81.75 67.30L81.75 67.30Q80.36 66.78 78.82 66.82L78.82 66.82Q77.43 66.87 75.58 67.23Q73.73 67.59 73.52 67.83Q73.30 68.07 72.82 68.70L72.82 68.70Q71.81 69.90 71.38 68.84L71.38 68.84Q71.19 68.41 70.57 67.33Q69.94 66.25 70.06 65.96Q70.18 65.67 69.77 63.90Q69.37 62.12 69.15 60.61Q68.93 59.10 68.65 58.18L68.65 58.18Q68.12 56.36 68.31 55.33Q68.50 54.30 69.51 53.38L69.51 53.38Q69.94 52.86 70.18 52.81Q70.42 52.76 70.90 52.95L70.90 52.95ZM79.88 56.60Q79.88 56.46 78.61 56.38Q77.33 56.31 75.82 56.43Q74.31 56.55 73.59 56.70L73.59 56.70L72.49 57.08L72.53 58.95Q72.58 60.82 72.77 61.21Q72.97 61.59 73.01 62.41L73.01 62.41L73.06 63.22L74.02 63.13Q74.89 62.98 76.57 62.79L76.57 62.79L78.29 62.50L78.73 61.40Q79.01 60.63 79.45 58.83Q79.88 57.03 79.88 56.60L79.88 56.60ZM58.47 32.17Q58.66 31.30 58.90 31.14Q59.14 30.97 60.75 31.06Q62.36 31.16 63.51 31.71Q64.66 32.26 64.76 32.41Q64.85 32.55 65.09 33.99L65.09 33.99Q65.24 34.90 65.19 35.29Q65.14 35.67 64.95 36.34L64.95 36.34Q64.47 37.30 64.25 37.30Q64.04 37.30 64.04 37.59Q64.04 37.88 63.65 38.10Q63.27 38.31 62.48 37.66Q61.69 37.02 61.21 36.66Q60.73 36.30 60.34 35.53Q59.96 34.76 59.14 33.94L59.14 33.94Q58.57 33.32 58.47 33.06Q58.37 32.79 58.47 32.17L58.47 32.17ZM79.40 30.78Q80.07 30.58 81.25 30.63Q82.42 30.68 82.71 30.82L82.71 30.82Q83.09 31.06 83.09 32.12L83.09 32.12Q83.09 32.89 83.00 33.20Q82.90 33.51 82.42 33.99L82.42 33.99Q81.85 34.57 81.46 34.62Q81.08 34.66 80.31 34.28L80.31 34.28Q79.49 33.85 78.89 33.97Q78.29 34.09 78.17 33.87Q78.05 33.66 77.62 33.66L77.62 33.66Q77.43 33.66 77.36 33.78Q77.29 33.90 77.33 34.33L77.33 34.33Q77.53 35.00 77.81 35.77Q78.10 36.54 77.86 36.78L77.86 36.78Q77.48 37.30 78.34 37.45L78.34 37.45Q78.77 37.50 79.54 37.54L79.54 37.54Q81.22 37.74 82.71 38.50L82.71 38.50Q84.15 39.18 84.39 39.56Q84.63 39.94 84.20 40.86L84.20 40.86Q83.72 41.77 83.81 41.94Q83.91 42.10 83.53 43.90Q83.14 45.70 83.21 45.75Q83.29 45.80 86.72 45.82Q90.15 45.85 91.54 46.04Q92.93 46.23 93.34 46.30Q93.75 46.38 94.09 47.00L94.09 47.00Q94.57 47.91 94.25 48.82Q93.94 49.74 93.08 50.12L93.08 50.12Q92.55 50.31 91.35 50.29Q90.15 50.26 89.96 50.07L89.96 50.07Q89.62 49.83 83.53 49.30L83.53 49.30Q81.99 49.21 79.47 49.45Q76.95 49.69 74.41 49.88L74.41 49.88Q71.05 50.07 68.98 50.53Q66.92 50.98 66.92 51.42L66.92 51.42Q66.92 51.66 66.73 51.70L66.73 51.70Q66.58 51.80 66.10 52.76Q65.62 53.72 65.48 54.25L65.48 54.25Q65.33 54.82 64.78 56.26Q64.23 57.70 64.04 58.42L64.04 58.42Q62.74 63.66 62.07 64.57L62.07 64.57Q61.93 64.76 61.73 65.67L61.73 65.67Q61.64 66.54 60.94 67.62Q60.25 68.70 59.57 68.89L59.57 68.89Q58.95 69.13 58.42 69.03L58.42 69.03Q57.99 68.89 57.10 68.02Q56.21 67.16 56.07 66.68L56.07 66.68Q55.93 66.15 55.69 65.91L55.69 65.91Q55.06 65.10 55.04 64.74Q55.01 64.38 55.40 63.51L55.40 63.51Q56.45 61.16 56.81 59.65Q57.17 58.14 57.27 55.30L57.27 55.30Q57.37 53.38 57.44 51.03Q57.51 48.68 57.46 47.05Q57.41 45.42 57.37 45.42L57.37 45.42Q57.17 45.42 56.45 45.92Q55.73 46.42 55.21 46.95L55.21 46.95Q54.58 47.58 54.20 47.60Q53.81 47.62 53.09 47.14L53.09 47.14Q52.52 46.76 52.30 46.14Q52.09 45.51 52.28 45.03L52.28 45.03Q52.47 44.74 52.52 44.50L52.52 44.50Q52.52 43.88 54.75 42.46Q56.98 41.05 58.71 40.57L58.71 40.57Q59.53 40.28 60.37 40.50Q61.21 40.71 61.54 41.29L61.54 41.29Q61.83 41.62 61.83 41.84Q61.83 42.06 61.59 42.68L61.59 42.68Q61.40 43.35 61.11 47.10Q60.82 50.84 60.73 53.86Q60.63 56.89 60.77 57.37L60.77 57.37Q60.87 57.37 61.88 55.98Q62.89 54.58 63.03 54.25L63.03 54.25Q63.13 54.01 63.89 53.05L63.89 53.05Q64.61 52.18 64.66 51.85Q64.71 51.51 64.23 51.42L64.23 51.42Q63.61 51.22 63.25 50.77Q62.89 50.31 63.03 49.83L63.03 49.83Q63.13 49.26 63.39 49.26Q63.65 49.26 63.94 48.92L63.94 48.92Q64.33 48.54 68.21 47.67L68.21 47.67Q70.28 47.24 70.33 46.38L70.33 46.38Q70.33 46.18 70.95 45.42L70.95 45.42Q71.48 44.74 72.22 43.18Q72.97 41.62 72.97 41.14L72.97 41.14Q72.97 40.76 72.80 40.76Q72.63 40.76 71.72 41.10L71.72 41.10Q71.00 41.34 70.83 41.34Q70.66 41.34 70.33 41.05L70.33 41.05L69.89 40.62L70.33 40.09Q70.81 39.51 72.05 38.98L72.05 38.98L73.30 38.36L73.59 36.78Q73.78 35.14 73.97 34.62L73.97 34.62Q74.02 34.28 73.97 34.16Q73.93 34.04 73.64 34.04L73.64 34.04Q73.21 34.04 72.58 34.38Q71.96 34.71 71.19 34.47L71.19 34.47Q70.09 34.18 70.04 33.56L70.04 33.56Q70.04 33.32 70.23 33.22L70.23 33.22Q70.57 33.03 70.57 32.70Q70.57 32.36 71.00 32.07L71.00 32.07Q72.01 31.45 76.76 31.06L76.76 31.06Q79.01 30.82 79.40 30.78L79.40 30.78ZM79.16 40.09Q79.06 39.94 77.86 39.94L77.86 39.94Q76.04 39.94 76.04 40.95L76.04 40.95Q76.04 41.86 74.60 44.02L74.60 44.02Q74.02 44.89 74.02 45.08Q74.02 45.27 73.61 45.75Q73.21 46.23 73.21 46.47L73.21 46.47Q73.21 46.52 74.09 46.57Q74.98 46.62 76.04 46.57Q77.09 46.52 77.57 46.42L77.57 46.42Q78.01 46.38 78.17 46.02Q78.34 45.66 78.68 44.07L78.68 44.07Q78.87 42.97 79.04 41.60Q79.21 40.23 79.16 40.09L79.16 40.09Z" fill="#fff"></path></svg>
